src/assets/duotone/RepeatCircle.svg

<svg width="24" height="24" viewBox="0 0 24 24"  xmlns="http://www.w3.org/2000/svg">
<path opacity="0.4" d="M12 22C17.5228 22 22 17.5228 22 12C22 6.47715 17.5228 2 12 2C6.47715 2 2 6.47715 2 12C2 17.5228 6.47715 22 12 22Z" />
<path d="M14.9 7.58988H9.31L9.72 7.17984C10.01 6.88984 10.01 6.40984 9.72 6.11984C9.43 5.82984 8.95001 5.82984 8.66001 6.11984L6.97 7.80985C6.9 7.87985 6.85 7.95984 6.81 8.04984C6.73 8.22984 6.73 8.43984 6.81 8.61984C6.85 8.70984 6.9 8.78983 6.97 8.85983L8.66001 10.5498C8.81001 10.6998 9 10.7699 9.19 10.7699C9.38 10.7699 9.57 10.6998 9.72 10.5498C10.01 10.2598 10.01 9.77984 9.72 9.48984L9.31 9.07987H14.9C15.37 9.07987 15.75 9.45984 15.75 9.92984V11.6999C15.75 12.1099 16.09 12.4499 16.5 12.4499C16.91 12.4499 17.25 12.1099 17.25 11.6999V9.92984C17.25 8.64984 16.19 7.58988 14.9 7.58988Z" />
<path d="M17.19 15.3701C17.15 15.2801 17.1 15.2001 17.03 15.1301L15.34 13.4401C15.05 13.1501 14.57 13.1501 14.28 13.4401C13.99 13.7301 13.99 14.2101 14.28 14.5001L14.69 14.91H9.10001C8.63001 14.91 8.25 14.5301 8.25 14.0601V12.29C8.25 11.88 7.91 11.54 7.5 11.54C7.09 11.54 6.75 11.88 6.75 12.29V14.0601C6.75 15.3601 7.81001 16.41 9.10001 16.41H14.69L14.28 16.8201C13.99 17.1101 13.99 17.5901 14.28 17.8801C14.43 18.0301 14.62 18.1 14.81 18.1C15 18.1 15.19 18.0301 15.34 17.8801L17.03 16.1901C17.1 16.1201 17.15 16.0401 17.19 15.9501C17.27 15.7601 17.27 15.5501 17.19 15.3701Z" />
</svg>

<?xml version="1.0" encoding="UTF-8"?>
<svg width="24" height="24" viewBox="0 0 24 24" xmlns="http://www.w3.org/2000/svg">
 <path d="m12 22c5.5228 0 10-4.4772 10-10 0-5.5228-4.4772-10-10-10-5.5228 0-10 4.4772-10 10 0 5.5228 4.4772 10 10 10z" opacity=".4"/>
 <path d="m14.9 7.5899h-5.59l0.41-0.41004c0.29-0.29 0.29-0.77 0-1.06s-0.76999-0.29-1.06 0l-1.69 1.69c-0.07 0.07-0.12 0.14999-0.16 0.23999-0.08 0.18-0.08 0.39 0 0.57 0.04 0.09 0.09 0.16999 0.16 0.23999l1.69 1.69c0.15 0.15 0.33999 0.2201 0.52999 0.2201s0.38-0.0701 0.53-0.2201c0.29-0.29 0.29-0.76996 0-1.06l-0.41-0.40997h5.59c0.47 0 0.85 0.37997 0.85 0.84997v1.7701c0 0.41 0.34 0.75 0.75 0.75s0.75-0.34 0.75-0.75v-1.7701c0-1.28-1.06-2.34-2.35-2.34z"/>
 <path d="m17.19 15.37c-0.04-0.09-0.09-0.17-0.16-0.24l-1.69-1.69c-0.29-0.29-0.77-0.29-1.06 0s-0.29 0.77 0 1.06l0.41 0.4099h-5.59c-0.47 0-0.85001-0.3799-0.85001-0.8499v-1.7701c0-0.41-0.34-0.75-0.75-0.75s-0.75 0.34-0.75 0.75v1.7701c0 1.3 1.06 2.3499 2.35 2.3499h5.59l-0.41 0.4101c-0.29 0.29-0.29 0.77 0 1.06 0.15 0.15 0.34 0.2199 0.53 0.2199s0.38-0.0699 0.53-0.2199l1.69-1.69c0.07-0.07 0.12-0.15 0.16-0.24 0.08-0.19 0.08-0.4 0-0.58z"/>
</svg>
